X:1
T:Title
%%score { ( 1 3 ) | ( 2 4 ) }
L:1/8
M:4/4
K:F
V:1 treble nm="Grand Piano"
V:3 treble 
V:2 bass 
V:4 bass 
V:1
 z4 z2[Q:1/4=100] F2 | A3 A AGFA | c6 [Fd]2 | c3 A FABA |[M:3/4] [EG]6 |[M:1/4] A z | %6
[M:4/4] F3 F F[EG][FA][GB] | [Fc]6 [Fd]2 | c3 A c2 [DF]2 | [EG]2 [EA]2 F4 | c3 A c3 d | %11
 f2 [Fd]2 c2 Ac | dc A2 F2 A2 |[M:3/4] [EG]6 |[M:1/4] F2 |[M:4/4] A3 A AGFA | c6 [Fd]2 | %17
 [Fc]3 [A,F] [CFA]2 [B,EG]2 |[M:3/4] [A,F]6 |] %19
V:2
 z4 z2 [F,A,]2 | [F,CF]3 [F,CF] [F,CF][F,B,F][F,A,C][F,CF] | [F,A,F]6 [B,,B,]2 | %3
 [F,A,F]3 [F,CF] [F,A,C][F,CF][G,CE][F,CF] |[M:3/4] [C,C]6 |[M:1/4] [C,B,]2 | %6
[M:4/4] [D,A,]3 [D,A,] [D,A,][C,B,][C,C][C,B,] | [F,A,]6 [B,,B,]2 | %8
 [F,A,F]3 [F,CF] [F,A,F]2 [B,,B,]2 | [C,B,]2 [C,C]2 [F,A,]4 | [F,A,F]3 [F,CF] [F,A,F]3 [F,B,F] | %11
 [B,,DF]2 [B,,B,]2 [F,A,F]2 [F,CF][F,A,F] | [F,F]2 z2 z4 |[M:3/4] [C,C]6 |[M:1/4] [F,A,]2 | %15
[M:4/4] [F,CF]3 [F,CF] [F,CF][F,B,F][F,A,C][F,CF] | [F,A,F]6 [B,,B,]2 | [C,A,]3 C, C,2 C,2 | %18
[M:3/4] F,6 |] %19
V:3
 x8 | x8 | x8 | x8 |[M:3/4] x6 |[M:1/4] E-[EG] |[M:4/4] x8 | x8 | x8 | x8 | x8 | x8 | x8 | %13
[M:3/4] x6 |[M:1/4] x2 |[M:4/4] x8 | x8 | x8 |[M:3/4] x6 |] %19
V:4
 x8 | x8 | x8 | x8 |[M:3/4] x6 |[M:1/4] x2 |[M:4/4] x8 | x8 | x8 | x8 | x8 | x8 | %12
 B,A, [F,CF]2 [F,A,C]2 [F,CF]2 |[M:3/4] x6 |[M:1/4] x2 |[M:4/4] x8 | x8 | x8 |[M:3/4] x6 |] %19

